X:32
T:Stopford’s Reel. JC.031
R:reel
S:John Clare,Poet,Helpston. (1793-1864)
O:England
A:Northamptonshire
Z:vmp.P. Headford
M:C
L:1/8
Q:2/4=80
K:A
e|dcBA{cd}e2{fg}a2|cBAc B/B/B ” crots in ms”Be|\
dcBA c/4d/4e3/2 f/4g/4a3/2|E>dcB A/A/A A:|!
|:z|CEAE ~cE e>c|{c/}BABc AFFE|CEAE cE e>c|B>ABc A/A/A AE|!
CEAE cE e>c|dcBA F3d|c/4d/4e3/2 f/4g/4a3/2 A/4B/4c3/2 c/4d/4e3/2|\
E>dcB A/A/A A:|

